icons/speech-bubble-arrow-left-outline.svg

<svg xmlns="http://www.w3.org/2000/svg" width="24" height="24" viewBox="0 0 24 24">
  <path d="M15,3 C19.5522847,3 23,6.44771525 23,11 C23,15.5522847 19.5522847,19 15,19 L15,19 L14.492,19 L14.4215793,19.0906275 C13.7103901,19.9663638 12.948642,20.6393906 11.8907103,21.256749 L11.8907103,21.256749 L11.5946555,21.4238497 L11.2369286,21.6140163 L10.9086251,21.7821926 C9.57755795,22.4597178 8,21.4937799 8,20 L8,20 L8,19 C4.27285013,19 1,15.3634999 1,11 C1,6.5377729 4.49099359,3 9,3 L9,3 Z M15,5 L9,5 C5.60156611,5 3,7.6364271 3,11 C3,14.3031668 5.42714987,17 8,17 L8,17 L9,17 C9.55228475,17 10,17.4477153 10,18 L10,18 L10,19.999 L10.3113445,19.8411503 L10.6455572,19.6634269 C11.7740931,19.0468761 12.4641772,18.4017399 13.194037,17.4080341 C13.3824481,17.1515119 13.6817197,17 14,17 L14,17 L15,17 C18.4477153,17 21,14.4477153 21,11 C21,7.55228475 18.4477153,5 15,5 L15,5 Z M11.3871006,7.20970461 C11.7793918,6.90467972 12.3466228,6.93240926 12.7071068,7.29289322 C13.0976311,7.68341751 13.0976311,8.31658249 12.7071068,8.70710678 L12.7071068,8.70710678 L11.415,10 L15,10 L15.1166211,10.0067277 C15.6139598,10.0644928 16,10.4871642 16,11 C16,11.5522847 15.5522847,12 15,12 L15,12 L11.415,12 L12.7071068,13.2928932 L12.7902954,13.3871006 C13.0953203,13.7793918 13.0675907,14.3466228 12.7071068,14.7071068 C12.3165825,15.0976311 11.6834175,15.0976311 11.2928932,14.7071068 L11.2928932,14.7071068 L8.29289322,11.7071068 L8.21968877,11.625449 C8.2173721,11.6225624 8.21507113,11.6196628 8.20970461,11.6128994 C8.20517454,11.6070733 8.20071786,11.6012086 8.19631351,11.5951593 C8.17849009,11.5711307 8.1617187,11.546275 8.14599545,11.5207088 C8.13860692,11.5086131 8.13149883,11.4963944 8.12487577,11.484277 C8.11379392,11.4642939 8.10337664,11.4438914 8.09367336,11.4232215 L8.09367336,11.4232215 L8.07110396,11.3710585 C8.06331574,11.3515792 8.05612249,11.3317977 8.04973809,11.3121425 C8.04472872,11.2968513 8.04009773,11.2814633 8.03572097,11.2658396 C8.02983363,11.2444365 8.0246398,11.2227461 8.02024007,11.2007258 C8.01670217,11.1833753 8.01362808,11.165949 8.01101934,11.1489612 L8.01101934,11.1489612 L8.003,11.081 L8.002,11.059 L8.00278786,11.0752385 L8.00278786,11.0752385 L8.0017331,11.0590314 L8.001,11.037 L8,11 L8.00018018,10.980824 L8.0017331,10.9409686 C8.00232561,10.9308872 8.00307004,10.9208131 8.00399798,10.909968 L8.00399798,10.909968 L8.0110178,10.8515331 C8.01362808,10.834051 8.01670217,10.8166247 8.02016515,10.7992059 C8.0246398,10.7772539 8.02983363,10.7555635 8.03584514,10.734007 C8.04009773,10.7185367 8.04472872,10.7031487 8.04954668,10.6882636 C8.05612249,10.6682023 8.06331574,10.6484208 8.07122549,10.628664 L8.07122549,10.628664 L8.09365378,10.5769009 C8.10337664,10.5561086 8.11379392,10.5357061 8.12467117,10.5159379 L8.12467117,10.5159379 L8.14606743,10.4793398 C8.1617187,10.453725 8.17849009,10.4288693 8.19633458,10.4046934 L8.19633458,10.4046934 L8.22,10.374 L8.216,10.378 L8.21968877,10.374551 L8.232,10.359 L8.24220802,10.347434 L8.24220802,10.347434 L8.29289322,10.2928932 L11.2928932,7.29289322 Z"/>
</svg>

<svg xmlns="http://www.w3.org/2000/svg" viewBox="0 0 24 24">
  <path d="M15 3c4.55 0 8 3.45 8 8s-3.45 8-8 8h-.5l-.08.1a8.85 8.85 0 0 1-2.53 2.16l-.3.16-.35.2-.33.16A2 2 0 0 1 8 20v-1c-3.73 0-7-3.64-7-8 0-4.46 3.5-8 8-8zm0 2H9c-3.4 0-6 2.64-6 6 0 3.3 2.43 6 5 6h1a1 1 0 0 1 1 1v2l.31-.16.34-.18a7.16 7.16 0 0 0 2.54-2.25A1 1 0 0 1 14 17h1c3.45 0 6-2.55 6-6s-2.55-6-6-6zm-3.61 2.21a1 1 0 0 1 1.32 1.5L11.4 10h3.71a1 1 0 0 1-.12 2H11.4l1.3 1.3.08.09a1 1 0 0 1-1.5 1.32l-3-3-.07-.08a3.01 3.01 0 0 1-.1-.15 1.02 1.02 0 0 1-.03-.06l-.02-.05a.95.95 0 0 1-.06-.22v-.09.02-.17l.01-.06a1.1 1.1 0 0 1 .06-.22l.02-.05.03-.06.03-.04.05-.08.02-.03.01-.01.01-.01.05-.06 3-3z"/>
</svg>
